src/common/static/images/applogo.svg

<svg width="2736" height="510" fill="none" xmlns="http://www.w3.org/2000/svg"><path d="M684.904 101.24h26.904L846.328 425h-33.744l-41.952-101.232H625.168L583.672 425h-34.2l135.432-323.76zm78.432 197.448l-65.208-160.056-66.12 160.056h131.328zM1091.39 129.512H976.024V425h-31.92V129.512H828.736V101.24h262.654v28.272zM1258.73 427.28c-22.8 0-43.48-4.56-62.02-13.68-18.54-9.424-34.5-21.888-47.88-37.392-13.38-15.504-23.71-32.984-31.01-52.44-7.29-19.76-10.94-39.976-10.94-60.648 0-21.584 3.8-42.104 11.4-61.56 7.6-19.76 18.24-37.24 31.92-52.44 13.98-15.504 30.25-27.664 48.79-36.48 18.54-9.12 38.61-13.68 60.19-13.68 22.5 0 43.02 4.712 61.56 14.136 18.55 9.424 34.51 22.04 47.88 37.848 13.68 15.808 24.02 33.44 31.01 52.896 7.3 19.456 10.94 39.368 10.94 59.736 0 21.584-3.8 42.256-11.4 62.016-7.6 19.456-18.24 36.936-31.92 52.44-13.68 15.2-29.79 27.208-48.33 36.024-18.55 8.816-38.61 13.224-60.19 13.224zM1138.8 263.12c0 17.632 2.89 34.504 8.66 50.616 5.78 16.112 13.99 30.552 24.63 43.32 10.64 12.768 23.25 22.952 37.84 30.552 14.9 7.296 31.16 10.944 48.8 10.944 18.54 0 35.11-3.8 49.7-11.4 14.9-7.904 27.51-18.392 37.85-31.464 10.64-13.072 18.69-27.512 24.17-43.32 5.47-16.112 8.2-32.528 8.2-49.248 0-17.632-2.88-34.504-8.66-50.616-5.78-16.112-14.14-30.552-25.08-43.32-10.64-12.768-23.26-22.8-37.85-30.096-14.59-7.296-30.7-10.944-48.33-10.944-18.24 0-34.81 3.8-49.71 11.4-14.59 7.6-27.21 17.936-37.85 31.008-10.33 12.768-18.39 27.208-24.16 43.32-5.48 16.112-8.21 32.528-8.21 49.248zM1451.2 101.24L1557 275.432l106.7-174.192h34.66l-125.4 203.376V425h-31.92V303.704L1416.09 101.24h35.11zM1855.45 427.28c-22.8 0-43.48-4.56-62.02-13.68-18.54-9.424-34.5-21.888-47.88-37.392-13.38-15.504-23.71-32.984-31.01-52.44-7.29-19.76-10.94-39.976-10.94-60.648 0-21.584 3.8-42.104 11.4-61.56 7.6-19.76 18.24-37.24 31.92-52.44 13.98-15.504 30.25-27.664 48.79-36.48 18.54-9.12 38.61-13.68 60.19-13.68 22.5 0 43.02 4.712 61.56 14.136 18.55 9.424 34.51 22.04 47.88 37.848 13.68 15.808 24.02 33.44 31.01 52.896 7.3 19.456 10.94 39.368 10.94 59.736 0 21.584-3.8 42.256-11.4 62.016-7.6 19.456-18.24 36.936-31.92 52.44-13.68 15.2-29.79 27.208-48.33 36.024-18.55 8.816-38.61 13.224-60.19 13.224zm-119.93-164.16c0 17.632 2.89 34.504 8.66 50.616 5.78 16.112 13.99 30.552 24.63 43.32 10.64 12.768 23.25 22.952 37.84 30.552 14.9 7.296 31.16 10.944 48.8 10.944 18.54 0 35.11-3.8 49.7-11.4 14.9-7.904 27.51-18.392 37.85-31.464 10.64-13.072 18.69-27.512 24.17-43.32 5.47-16.112 8.2-32.528 8.2-49.248 0-17.632-2.88-34.504-8.66-50.616-5.78-16.112-14.14-30.552-25.08-43.32-10.64-12.768-23.26-22.8-37.85-30.096-14.59-7.296-30.7-10.944-48.33-10.944-18.24 0-34.81 3.8-49.71 11.4-14.59 7.6-27.21 17.936-37.85 31.008-10.33 12.768-18.39 27.208-24.16 43.32-5.48 16.112-8.21 32.528-8.21 49.248zM2354.3 425V161.432l-117.19 204.744h-20.07l-117.65-204.744V425h-31.92V101.24h32.84l126.31 221.616 127.22-221.616h32.38V425h-31.92zM2599.15 427.28c-25.54 0-47.12-4.56-64.75-13.68-17.33-9.12-31.31-21.432-41.95-36.936-10.64-15.504-18.24-32.832-22.8-51.984-4.56-19.456-6.84-39.52-6.84-60.192V101.24h31.46v163.248c0 17.024 1.67 33.592 5.02 49.704 3.64 15.808 9.42 30.096 17.32 42.864 7.91 12.768 18.55 22.952 31.92 30.552 13.38 7.296 30.1 10.944 50.16 10.944 20.68 0 37.7-3.8 51.08-11.4 13.68-7.6 24.47-17.784 32.37-30.552 7.91-13.072 13.38-27.512 16.42-43.32a239.752 239.752 0 005.01-48.792V101.24h31.92v163.248c0 21.584-2.43 42.256-7.29 62.016-4.87 19.456-12.77 36.784-23.71 51.984-10.64 15.2-24.63 27.208-41.96 36.024-17.32 8.512-38.45 12.768-63.38 12.768zM509.531 288.435a54.106 54.106 0 00-7.828-15.453 29.163 29.163 0 00-1.672-2.203c-1.063-1.734-2.281-3.344-3.688-4.938l-8.281-7.297-37.625-33.078-20.25-17.781 38.625-34.234c5.813-5.156 6.344-14.031 1.203-19.844-5.078-5.828-13.969-6.359-19.797-1.219l-41.313 36.578-116.702 103.282a39.796 39.796 0 01-26.359 9.953c-2.797 0-5.594-.266-8.406-.875l-66.719-14.766-80.563-17.781-56.469-12.5-8.094-1.797c-2.547-.875-4.813-2.016-6.813-3.484a24.426 24.426 0 01-7.5-8.828 24.615 24.615 0 01-2.75-11.297c0-2.406.406-4.953 1.156-7.422a25.873 25.873 0 013.672-7.203c2.281-3.219 5.344-5.766 8.813-7.5a24.22 24.22 0 0111.234-2.75c.672 0 1.344.078 2 .078l58.234 12.563 135.047 29.219c16.703 3.672 34.156-.875 46.984-12.234l83.016-73.125 84.781-74.671c7.625-6.767 10.828-17.189 8.219-27.017-2.531-9.89-10.438-17.453-20.391-19.593l-10.563-2.267-77.016-16.655-97.528-21.048a53.481 53.481 0 00-46.984 12.235L88.906 127.934l-39.172 34.422-34.078 29.953a34.1 34.1 0 00-3.688 4.938c-.609.734-1.141 1.406-1.672 2.203-3.344 4.563-6.016 9.766-7.828 15.453A53.512 53.512 0 000 230.873c0 11.438 3.672 22.328 10.156 31.281 3.281 4.547 7.219 8.563 11.844 11.906a51.158 51.158 0 0015.438 7.75l.594.203 59.438 13.031 11.5 10.234-1.688 1.469-39.156 34.438-34.095 29.938a37.784 37.784 0 00-3.688 4.953c-.594.734-1.125 1.406-1.656 2.203a53.026 53.026 0 00-7.828 15.438 53.093 53.093 0 00-2.484 15.984c0 11.422 3.688 22.313 10.156 31.281 3.281 4.547 7.219 8.563 11.844 11.906a51.532 51.532 0 0015.438 7.75l.594.203 59.438 13.031 56.297 12.297 97.734 21.391c4.75 1.063 9.547 1.547 14.375 1.547a67.981 67.981 0 0044.906-16.922l3.344-2.938 116.063-102.75 38.641-34.234a13.573 13.573 0 003.734-5.344 51.96 51.96 0 0010.906-11.234c6.469-8.953 10.156-19.844 10.156-31.281a53.488 53.488 0 00-2.47-15.969zm-82.218 79.344L310.578 471.06a39.681 39.681 0 01-26.328 9.969 40.71 40.71 0 01-8.438-.875l-66.703-14.781-80.547-17.781-56.5-12.484-8.094-1.813c-2.531-.875-4.813-2-6.813-3.484a24.527 24.527 0 01-7.5-8.813 24.645 24.645 0 01-2.734-11.297c0-2.406.406-4.953 1.141-7.421a26.229 26.229 0 013.688-7.219c2.266-3.219 5.344-5.75 8.813-7.484 3.406-1.813 7.281-2.75 11.234-2.75.672 0 1.328.063 2 .063l58.234 12.578 135.031 29.203c16.719 3.688 34.156-.859 47-12.234l36.094-31.75 80.156-17.578-2.999 2.67zm53.406-52.062a24.379 24.379 0 01-7.5 8.813c-2 1.469-4.281 2.609-6.813 3.484L394 344.045l-139.437 30.828c-2.75.594-5.625.859-8.422.859a39.789 39.789 0 01-26.344-9.953l-66.047-58.422 97.734 21.391c4.75 1.063 9.563 1.531 14.359 1.531 16.391 0 32.375-5.875 44.938-16.922l3.344-2.938 142.516-30.813c.672 0 1.281-.063 1.953-.063 2.531 0 5 .391 7.344 1.141 1.344.391 2.672.922 3.938 1.594 3.422 1.734 6.5 4.281 8.844 7.5 1.531 2.125 2.719 4.531 3.594 7.203a24.388 24.388 0 011.156 7.422c-.001 3.954-.97 7.829-2.751 11.314z" fill="#595959"/></svg>

<svg width="2736" height="510" viewBox="0 0 2736 510" fill="none" xmlns="http://www.w3.org/2000/svg">
<path d="M684.904 101.24H711.808L846.328 425H812.584L770.632 323.768H625.168L583.672 425H549.472L684.904 101.24ZM763.336 298.688L698.128 138.632L632.008 298.688H763.336Z" fill="#595959"/>
<path d="M1091.39 129.512H976.024V425H944.104V129.512H828.736V101.24H1091.39V129.512Z" fill="#595959"/>
<path d="M1258.73 427.28C1235.93 427.28 1215.25 422.72 1196.71 413.6C1178.17 404.176 1162.21 391.712 1148.83 376.208C1135.45 360.704 1125.12 343.224 1117.82 323.768C1110.53 304.008 1106.88 283.792 1106.88 263.12C1106.88 241.536 1110.68 221.016 1118.28 201.56C1125.88 181.8 1136.52 164.32 1150.2 149.12C1164.18 133.616 1180.45 121.456 1198.99 112.64C1217.53 103.52 1237.6 98.96 1259.18 98.96C1281.68 98.96 1302.2 103.672 1320.74 113.096C1339.29 122.52 1355.25 135.136 1368.62 150.944C1382.3 166.752 1392.64 184.384 1399.63 203.84C1406.93 223.296 1410.57 243.208 1410.57 263.576C1410.57 285.16 1406.77 305.832 1399.17 325.592C1391.57 345.048 1380.93 362.528 1367.25 378.032C1353.57 393.232 1337.46 405.24 1318.92 414.056C1300.37 422.872 1280.31 427.28 1258.73 427.28ZM1138.8 263.12C1138.8 280.752 1141.69 297.624 1147.46 313.736C1153.24 329.848 1161.45 344.288 1172.09 357.056C1182.73 369.824 1195.34 380.008 1209.93 387.608C1224.83 394.904 1241.09 398.552 1258.73 398.552C1277.27 398.552 1293.84 394.752 1308.43 387.152C1323.33 379.248 1335.94 368.76 1346.28 355.688C1356.92 342.616 1364.97 328.176 1370.45 312.368C1375.92 296.256 1378.65 279.84 1378.65 263.12C1378.65 245.488 1375.77 228.616 1369.99 212.504C1364.21 196.392 1355.85 181.952 1344.91 169.184C1334.27 156.416 1321.65 146.384 1307.06 139.088C1292.47 131.792 1276.36 128.144 1258.73 128.144C1240.49 128.144 1223.92 131.944 1209.02 139.544C1194.43 147.144 1181.81 157.48 1171.17 170.552C1160.84 183.32 1152.78 197.76 1147.01 213.872C1141.53 229.984 1138.8 246.4 1138.8 263.12Z" fill="#595959"/>
<path d="M1451.2 101.24L1557 275.432L1663.7 101.24H1698.36L1572.96 304.616V425H1541.04V303.704L1416.09 101.24H1451.2Z" fill="#595959"/>
<path d="M1855.45 427.28C1832.65 427.28 1811.97 422.72 1793.43 413.6C1774.89 404.176 1758.93 391.712 1745.55 376.208C1732.17 360.704 1721.84 343.224 1714.54 323.768C1707.25 304.008 1703.6 283.792 1703.6 263.12C1703.6 241.536 1707.4 221.016 1715 201.56C1722.6 181.8 1733.24 164.32 1746.92 149.12C1760.9 133.616 1777.17 121.456 1795.71 112.64C1814.25 103.52 1834.32 98.96 1855.9 98.96C1878.4 98.96 1898.92 103.672 1917.46 113.096C1936.01 122.52 1951.97 135.136 1965.34 150.944C1979.02 166.752 1989.36 184.384 1996.35 203.84C2003.65 223.296 2007.29 243.208 2007.29 263.576C2007.29 285.16 2003.49 305.832 1995.89 325.592C1988.29 345.048 1977.65 362.528 1963.97 378.032C1950.29 393.232 1934.18 405.24 1915.64 414.056C1897.09 422.872 1877.03 427.28 1855.45 427.28ZM1735.52 263.12C1735.52 280.752 1738.41 297.624 1744.18 313.736C1749.96 329.848 1758.17 344.288 1768.81 357.056C1779.45 369.824 1792.06 380.008 1806.65 387.608C1821.55 394.904 1837.81 398.552 1855.45 398.552C1873.99 398.552 1890.56 394.752 1905.15 387.152C1920.05 379.248 1932.66 368.76 1943 355.688C1953.64 342.616 1961.69 328.176 1967.17 312.368C1972.64 296.256 1975.37 279.84 1975.37 263.12C1975.37 245.488 1972.49 228.616 1966.71 212.504C1960.93 196.392 1952.57 181.952 1941.63 169.184C1930.99 156.416 1918.37 146.384 1903.78 139.088C1889.19 131.792 1873.08 128.144 1855.45 128.144C1837.21 128.144 1820.64 131.944 1805.74 139.544C1791.15 147.144 1778.53 157.48 1767.89 170.552C1757.56 183.32 1749.5 197.76 1743.73 213.872C1738.25 229.984 1735.52 246.4 1735.52 263.12Z" fill="#595959"/>
<path d="M2354.3 425V161.432L2237.11 366.176H2217.04L2099.39 161.432V425H2067.47V101.24H2100.31L2226.62 322.856L2353.84 101.24H2386.22V425H2354.3Z" fill="#595959"/>
<path d="M2599.15 427.28C2573.61 427.28 2552.03 422.72 2534.4 413.6C2517.07 404.48 2503.09 392.168 2492.45 376.664C2481.81 361.16 2474.21 343.832 2469.65 324.68C2465.09 305.224 2462.81 285.16 2462.81 264.488V101.24H2494.27V264.488C2494.27 281.512 2495.94 298.08 2499.29 314.192C2502.93 330 2508.71 344.288 2516.61 357.056C2524.52 369.824 2535.16 380.008 2548.53 387.608C2561.91 394.904 2578.63 398.552 2598.69 398.552C2619.37 398.552 2636.39 394.752 2649.77 387.152C2663.45 379.552 2674.24 369.368 2682.14 356.6C2690.05 343.528 2695.52 329.088 2698.56 313.28C2701.9 297.168 2703.57 280.904 2703.57 264.488V101.24H2735.49V264.488C2735.49 286.072 2733.06 306.744 2728.2 326.504C2723.33 345.96 2715.43 363.288 2704.49 378.488C2693.85 393.688 2679.86 405.696 2662.53 414.512C2645.21 423.024 2624.08 427.28 2599.15 427.28Z" fill="#595959"/>
<path d="M509.531 288.435C507.718 282.747 505.031 277.544 501.703 272.982C501.156 272.185 500.64 271.513 500.031 270.779C498.968 269.045 497.75 267.435 496.343 265.841L488.062 258.544L450.437 225.466L430.187 207.685L468.812 173.451C474.625 168.295 475.156 159.42 470.015 153.607C464.937 147.779 456.046 147.248 450.218 152.388L408.905 188.966L292.203 292.248C284.844 298.732 275.484 302.201 265.844 302.201C263.047 302.201 260.25 301.935 257.438 301.326L190.719 286.56L110.156 268.779L53.687 256.279L45.593 254.482C43.046 253.607 40.78 252.466 38.78 250.998C35.561 248.654 33.03 245.654 31.28 242.17C29.483 238.701 28.53 234.811 28.53 230.873C28.53 228.467 28.936 225.92 29.686 223.451C30.561 220.779 31.811 218.373 33.358 216.248C35.639 213.029 38.702 210.482 42.171 208.748C45.593 206.951 49.468 205.998 53.405 205.998C54.077 205.998 54.749 206.076 55.405 206.076L113.639 218.639L248.686 247.858C265.389 251.53 282.842 246.983 295.67 235.624L378.686 162.499L463.467 87.8275C471.092 81.0615 474.295 70.6395 471.686 60.8115C469.155 50.9205 461.248 43.3585 451.295 41.2175L440.732 38.9515L363.716 22.2955L266.188 1.24848C249.485 -2.42352 232.032 2.10748 219.204 13.4825L88.906 127.935L49.734 162.357L15.656 192.31C14.234 193.904 13.031 195.513 11.968 197.248C11.359 197.982 10.827 198.654 10.296 199.451C6.952 204.014 4.28 209.217 2.468 214.904C0.813 220.185 0 225.592 0 230.873C0 242.311 3.672 253.201 10.156 262.154C13.437 266.701 17.375 270.717 22 274.06C26.531 277.404 31.75 280.076 37.438 281.81L38.032 282.013L97.47 295.044L108.97 305.278L107.282 306.747L68.126 341.185L34.031 371.123C32.625 372.732 31.422 374.342 30.343 376.076C29.749 376.81 29.218 377.482 28.687 378.279C25.343 382.826 22.656 388.029 20.859 393.717C19.187 398.998 18.375 404.42 18.375 409.701C18.375 421.123 22.063 432.014 28.531 440.982C31.812 445.529 35.75 449.545 40.375 452.888C44.922 456.232 50.141 458.904 55.813 460.638L56.407 460.841L115.845 473.872L172.142 486.169L269.876 507.56C274.626 508.623 279.423 509.107 284.251 509.107C300.626 509.107 316.595 503.216 329.157 492.185L332.501 489.247L448.564 386.497L487.205 352.263C488.939 350.732 490.158 348.935 490.939 346.919C495.158 343.716 498.845 339.903 501.845 335.685C508.314 326.732 512.001 315.841 512.001 304.404C512 299.123 511.188 293.717 509.531 288.435ZM427.313 367.779L310.578 471.06C303.219 477.56 293.875 481.029 284.25 481.029C281.437 481.029 278.625 480.748 275.812 480.154L209.109 465.373L128.562 447.592L72.062 435.108L63.968 433.295C61.437 432.42 59.155 431.295 57.155 429.811C53.952 427.483 51.405 424.467 49.655 420.998C47.858 417.514 46.921 413.639 46.921 409.701C46.921 407.295 47.327 404.748 48.062 402.28C48.937 399.608 50.203 397.202 51.75 395.061C54.016 391.842 57.094 389.311 60.563 387.577C63.969 385.764 67.844 384.827 71.797 384.827C72.469 384.827 73.125 384.89 73.797 384.89L132.031 397.468L267.062 426.671C283.781 430.359 301.218 425.812 314.062 414.437L350.156 382.687L430.312 365.109L427.313 367.779ZM480.719 315.717C478.969 319.186 476.438 322.201 473.219 324.53C471.219 325.999 468.938 327.139 466.406 328.014L394 344.045L254.563 374.873C251.813 375.467 248.938 375.732 246.141 375.732C236.516 375.732 227.157 372.263 219.797 365.779L153.75 307.357L251.484 328.748C256.234 329.811 261.047 330.279 265.843 330.279C282.234 330.279 298.218 324.404 310.781 313.357L314.125 310.419L456.641 279.606C457.313 279.606 457.922 279.543 458.594 279.543C461.125 279.543 463.594 279.934 465.938 280.684C467.282 281.075 468.61 281.606 469.876 282.278C473.298 284.012 476.376 286.559 478.72 289.778C480.251 291.903 481.439 294.309 482.314 296.981C483.111 299.465 483.47 301.997 483.47 304.403C483.469 308.357 482.5 312.232 480.719 315.717Z" fill="#595959"/>
</svg>
